X: 18539
T: I Have A House Of My Own With A Chimney Built On Top Of It
R: slip jig
M: 9/8
K: Adorian
|AGE EDE ~E3|AGE EDE GAB|AGE EDE ~E3|EDE GAB AGE|
AGE EDE ~E3|AGE EDE GAB|AGE EDE ~E3|EDE GAB AGA|
~B3 dBd d3|edB edB dBA|~B3 dBd d2B|AGA B2A GED|
~B3 dBd d3|edB edB dBd|e3 dBA B3|AGA B2A GED|

